assets/Field hockey/Flat/field_hockey_flat.svg

<svg width="32" height="32" viewBox="0 0 32 32" fill="none" xmlns="http://www.w3.org/2000/svg">
<path d="M18.2634 13.0264L20.5 13.5L21.7678 14.4866L21.3262 15.5632L19.5 15L17.8134 14.1225L18.2634 13.0264Z" fill="#E39D89"/>
<path d="M17.2438 15.5101L19 16L20.7568 16.9509L19.2547 20.6123L17.5 20.5L15.7409 19.1712L17.2438 15.5101Z" fill="#E39D89"/>
<path d="M14.7929 21.4802L13.6763 24.2004C13.2963 25.1304 12.2263 25.5804 11.2963 25.1904C10.3663 24.8104 9.91627 23.7404 10.3063 22.8104L10.7663 21.6804C11.2863 20.4104 10.6763 18.9504 9.40628 18.4304C8.13628 17.9104 6.67627 18.5204 6.15627 19.7904L5.46628 21.4704C4.16628 24.6404 5.67628 28.2704 8.85628 29.5804C12.0263 30.8804 15.6563 29.3704 16.9663 26.1904L18.3073 22.9216L16.6413 21.6804L14.7929 21.4802Z" fill="#E39D89"/>
<path d="M24 30.0004C25.6569 30.0004 27 28.6573 27 27.0004C27 25.3436 25.6569 24.0004 24 24.0004C22.3431 24.0004 21 25.3436 21 27.0004C21 28.6573 22.3431 30.0004 24 30.0004Z" fill="#D3D3D3"/>
<path d="M22.5763 2.52041L18.2634 13.0264L21.7678 14.4866L26.0863 3.9604C26.2663 3.5304 26.0563 3.0404 25.6263 2.8604L23.6763 2.0604C23.2363 1.8904 22.7463 2.09041 22.5763 2.52041ZM17.8134 14.1225L21.3262 15.5632L20.7568 16.9509L17.2438 15.5101L17.8134 14.1225Z" fill="#533566"/>
<path d="M19.2547 20.6123L15.7409 19.1712L14.793 21.4802L18.3073 22.9216L19.2547 20.6123Z" fill="white"/>
</svg>

<svg xmlns="http://www.w3.org/2000/svg" width="32" height="32" fill="none"><path fill="#E39D89" d="m18.263 13.026 2.237.474 1.268.987-.442 1.076L19.5 15l-1.687-.877.45-1.097ZM17.244 15.51 19 16l1.757.95-1.502 3.662L17.5 20.5l-1.76-1.329 1.504-3.66ZM14.793 21.48l-1.117 2.72c-.38.93-1.45 1.38-2.38.99a1.817 1.817 0 0 1-.99-2.38l.46-1.13c.52-1.27-.09-2.73-1.36-3.25s-2.73.09-3.25 1.36l-.69 1.68c-1.3 3.17.21 6.8 3.39 8.11 3.17 1.3 6.8-.21 8.11-3.39l1.341-3.268-1.666-1.242-1.848-.2Z"/><path fill="#D3D3D3" d="M24 30a3 3 0 1 0 0-6 3 3 0 0 0 0 6Z"/><path fill="#533566" d="m22.576 2.52-4.313 10.506 3.505 1.46L26.086 3.96a.842.842 0 0 0-.46-1.1l-1.95-.8a.844.844 0 0 0-1.1.46Zm-4.763 11.603 3.513 1.44-.57 1.388-3.512-1.44.57-1.388Z"/><path fill="#fff" d="m19.255 20.612-3.514-1.44-.948 2.308 3.514 1.442.948-2.31Z"/></svg>
